!!!OTL: Xiangyang hua
!!!ARE: Asia, China,ÿHubei
!!!SCT: C2126
!!!YEM: Copyright 1995, estate of Helmut Schaffrath.
**kern
*ICvox
*Ivox
*M4/4
*k[]
*C:
{4dd
8a
8cc
2dd
=1
8dd
8ee
8dd
8cc
2a
=2
8.dd
16gg
2ee
8ee
8ee
=3
8cc
4dd
8cc
2a}
=4
{8.a
16dd
8a
8cc
4.dd
8ee
=5
4a
4cc
2a
=6
8.dd
16gg
2ee
8ee
8ee
=7
8cc
4dd
8cc
2a}
=8
{4.a
16cc
16a
8a
8cc
8dd
8ee
=9
8.dd
16ee
8dd
8cc
2a}
=10
{8.dd
16ee
8a
8cc
4.dd
8ee
=11
8a
8cc
2.a}
=12
{8.a
16cc
8dd
8ee
8dd
8cc
4a
=13
8a
8dd
2.cc}
=14
{8.dd
16ee
8a
8cc
2dd
=15
4.a
8cc
4dd
4ee}
=16
{8ee
16ee
16dd
8cc
8ee
8dd
8ee
8dd
8cc
=17
8a
4.a
8ee
16ee
16dd
8cc
8ee
=18
8dd
8ee
8dd
8cc
8a
4.a}
==
!!!AGN: Shange, Chuan haozi
!!!ONB: ESAC (Essen Associative Code) Database: SENGANSU
!!!AMT: simple quadruple
!!!AIN: vox
!!!EED: Helmut Schaffrath
!!!EEV: 1.0
*-
